X:128
T:Rantin' Roarin' Willie
T:The Mitford Galloway
Z:Jack Campin, http://www.campin.me.uk/
S:Northumbrian Minstrelsy
M:9/4
L:1/8
K:G
e2|dcBABG d4  G2 Bcd2e2|=f2gfed  f2c2A2 c4  e2| 
   dcBABG B4  G2 Bcd2ef| efefge  g2d2B2 d4  ef| 
   gfefge g2d2B2 d2c2B2| c2B2A2 =f2c2A2 cBcdef|
   g4  d2 e4  d2 gfefge| dcBcdB  c2A2F2 G4   ||
e2|G2BcdB d2BcdB G2BcdB| F2ABcA =f2c2A2 c4  e2| 
   G2BcdB d2BcdB G2BcdB| g2BcdB  d2BcdB d4  ef|
   g2BcdB d2BcdB g2BcdB| c2ABcA =f2c2A2 cBcdef|
   g4  d2 e4  d2 gfefge| dcBcdB  c2A2F2 G4   |]

